src/components/Logo/logo.svg

<svg width="40" height="40" viewBox="0 0 40 40" version="1.1" xmlns="http://www.w3.org/2000/svg" xmlns:xlink="http://www.w3.org/1999/xlink"><title>logo</title><desc>Created with Sketch.</desc><defs><linearGradient x1="0%" y1="0%" x2="102%" y2="101%" id="linearGradient-1"><stop stop-color="#3023AE" offset="0%"/><stop stop-color="#C86DD7" offset="100%"/></linearGradient></defs><g id="Page-1" stroke="none" stroke-width="1" fill="none" fill-rule="evenodd"><g id="logo" fill-rule="nonzero"><circle id="Combined-Shape" fill="url(#linearGradient-1)" cx="20" cy="20" r="20"/><rect id="Rectangle-2" fill="#FFF" x="25" y="12.5" width="4" height="10"/><polygon id="Triangle" fill="#FFF" transform="translate(27.000000, 25.000000) rotate(-180.000000) translate(-27.000000, -25.000000)" points="27 22 33 28 21 28"/><path d="M14.0857538,15.0318119 C13.5103706,15.0318119 13.0567098,15.1682789 12.724758,15.4412172 C12.3928061,15.7141554 12.2268326,16.0756086 12.2268326,16.5255878 C12.2268326,16.975567 12.4296891,17.333332 12.835408,17.5988935 C13.241127,17.864455 14.1779549,18.1779604 15.6459198,18.5394191 C17.1138847,18.9008778 18.253569,19.4430577 19.0650069,20.1659751 C19.8764448,20.8888925 20.2821577,21.9437459 20.2821577,23.3305671 C20.2821577,24.7173882 19.7621076,25.8423193 18.7219917,26.7053942 C17.6818759,27.568469 16.313517,28 14.6168741,28 C12.167807,28 9.96220437,27.0926785 8,25.2780083 L10.0580913,22.7551867 C11.7252273,24.2157749 13.2669362,24.9460581 14.6832642,24.9460581 C15.3176611,24.9460581 15.8155814,24.809591 16.1770401,24.5366528 C16.5384988,24.2637146 16.7192254,23.8948848 16.7192254,23.4301521 C16.7192254,22.9654195 16.5274339,22.5965897 16.1438451,22.3236515 C15.7602563,22.0507133 15.0004667,21.7740908 13.8644537,21.4937759 C12.0645369,21.0659269 10.7478142,20.5089937 9.9142462,19.8229599 C9.08067817,19.136926 8.66390041,18.0599428 8.66390041,16.5919779 C8.66390041,15.1240129 9.19132714,13.9917052 10.2461964,13.1950207 C11.3010657,12.3983363 12.6177883,12 14.1964039,12 C15.229143,12 16.2618667,12.1770383 17.2946058,12.5311203 C18.327345,12.8852023 19.2272898,13.386811 19.9944675,14.0359613 L18.2461964,16.5587828 C16.9036355,15.5407971 15.5168352,15.0318119 14.0857538,15.0318119 Z" id="Path" fill="#FFF"/></g></g></svg>

<svg width="40" height="40" xmlns="http://www.w3.org/2000/svg"><defs><linearGradient x1="0%" y1="0%" x2="102%" y2="101%" id="a"><stop stop-color="#3023AE" offset="0%"/><stop stop-color="#C86DD7" offset="100%"/></linearGradient></defs><g fill-rule="nonzero" fill="none"><circle fill="url(#a)" cx="20" cy="20" r="20"/><path fill="#FFF" d="M25 12.5h4v10h-4z"/><path fill="#FFF" d="M27 28l-6-6h12zM14.086 15.032c-.576 0-1.03.136-1.361.41-.332.272-.498.634-.498 1.084 0 .45.203.807.608 1.073.406.265 1.343.579 2.81.94 1.469.362 2.609.904 3.42 1.627.811.723 1.217 1.778 1.217 3.165 0 1.386-.52 2.511-1.56 3.374S16.314 28 14.617 28c-2.45 0-4.655-.907-6.617-2.722l2.058-2.523c1.667 1.46 3.209 2.191 4.625 2.191.635 0 1.133-.136 1.494-.41.361-.272.542-.641.542-1.106a1.29 1.29 0 0 0-.575-1.106c-.384-.273-1.144-.55-2.28-.83-1.8-.428-3.116-.985-3.95-1.671-.833-.686-1.25-1.763-1.25-3.231s.527-2.6 1.582-3.397c1.055-.797 2.372-1.195 3.95-1.195 1.033 0 2.066.177 3.099.531 1.032.354 1.932.856 2.7 1.505l-1.749 2.523c-1.342-1.018-2.73-1.527-4.16-1.527z"/></g></svg>
